Suru++-Ubuntu/apps/scalable/preferences-desktop-wallpaper.svg

<svg width="256" height="256" version="1.1" viewBox="0 0 256 256" xmlns="http://www.w3.org/2000/svg" xmlns:xlink="http://www.w3.org/1999/xlink">
 <defs>
  <clipPath id="clipPath989">
   <path d="m115.03124 43.99999c-72.648636 1e-5 -83.031226 10.35662-83.031236 82.93751v58.12499c0 72.5806 10.38261 82.9375 83.031236 82.9375h73.93752c72.64864 0 83.03124-10.35692 83.03124-82.9375v-58.12499c0-72.58089-10.3826-82.9375-83.03125-82.9375z" style="fill:url(#linearGradient993)"/>
  </clipPath>
  <filter id="filter931" x="-.01" y="-.01" width="1.023" height="1.025" style="color-interpolation-filters:sRGB">
   <feGaussianBlur stdDeviation=".423"/>
  </filter>
  <linearGradient id="linearGradient971" x1="184" x2="232" y1="76" y2="124" gradientTransform="translate(0,4)" gradientUnits="userSpaceOnUse">
   <stop style="stop-color:#000000;stop-opacity:0" offset="0"/>
   <stop style="stop-color:#000000" offset=".49"/>
   <stop style="stop-color:#000000;stop-opacity:0" offset="1"/>
  </linearGradient>
  <linearGradient id="linearGradient1108" x1="296" x2="296" y1="-212" y2="236" gradientUnits="userSpaceOnUse">
   <stop style="stop-color:#ffffff" offset="0"/>
   <stop style="stop-color:#ffffff;stop-opacity:.09803922" offset=".125"/>
   <stop style="stop-color:#000000;stop-opacity:.09803922" offset=".925"/>
   <stop style="stop-color:#000000;stop-opacity:.49803922" offset="1"/>
  </linearGradient>
  <clipPath id="clipPath1082-3-3">
   <path d="M 361.9375,-212 C 507.2348,-212 528,-191.28677 528,-46.125 V 70.125 C 528,215.28618 507.2348,236 361.9375,236 H 214.0625 C 68.7652,236 48,215.28618 48,70.125 V -46.125 C 48,-191.28677 68.7652,-212 214.0625,-212 Z" style="fill:#8c59d9"/>
  </clipPath>
  <linearGradient id="linearGradient938" x1="32" x2="272" y1="156" y2="156" gradientTransform="matrix(-.34202014 .93969262 .93969262 .34202014 30.963035 -67.75648)" gradientUnits="userSpaceOnUse">
   <stop style="stop-color:#9b33ae" offset="0"/>
   <stop style="stop-color:#e97cc8" offset="1"/>
  </linearGradient>
  <filter id="filter1013" x="-.02" y="-.03" width="1.046" height="1.05" style="color-interpolation-filters:sRGB">
   <feGaussianBlur stdDeviation="2.32"/>
  </filter>
 </defs>
 <path d="m162.53675 18.431977c72.64865 0 83.03125 10.356616 83.03125 82.937503v58.12501c0 72.58059-10.3826 82.9375-83.03125 82.9375h-73.937496c-72.648654 0-83.031254-10.35691-83.031254-82.9375v-58.12501c0-72.580887 10.3826-82.937503 83.031254-82.937503z" style="filter:url(#filter1013);opacity:.2"/>
 <path d="m88.599244 16.431982c-72.648636 1e-5 -83.03124 10.35661-83.03125 82.9375v58.125008c0 72.5806 10.382624 82.9375 83.03125 82.9375h73.937496c72.64864 0 83.03125-10.35692 83.03125-82.9375v-58.125008c0-1.00599-0.01-1.95528-0.0137-2.9375l-89.00388-80z" style="fill:url(#linearGradient938)"/>
 <path d="m230.90588 24.603857-194.67578 207.65625c12.45966 6.53045 31.491462 8.17188 60.369141 8.17188h73.937496c72.64864 0 83.03125-10.35692 83.03125-82.9375v-58.125008c0-43.730136-3.77655-64.867242-22.66211-74.765625z" style="fill:#ffffff;opacity:.05"/>
 <path transform="matrix(.5 0 0 .5 -18.432006 122.43199)" d="M 361.9375,-212 C 507.2348,-212 528,-191.28677 528,-46.125 V 70.125 C 528,215.28618 507.2348,236 361.9375,236 H 214.0625 C 68.7652,236 48,215.28618 48,70.125 V -46.125 C 48,-191.28677 68.7652,-212 214.0625,-212 Z" clip-path="url(#clipPath1082-3-3)" style="fill:none;opacity:.4;stroke-linecap:round;stroke-linejoin:round;stroke-width:8;stroke:url(#linearGradient1108)"/>
 <g transform="translate(-26.432006,-27.568018)" clip-path="url(#clipPath989)" style="enable-background:new">
  <path d="m182.98242 44c0.29365 69.88348 11.37588 80 83.01758 80h5.98633l0.01367-80z" style="filter:url(#filter931);opacity:.1"/>
  <path d="m182.98242 48c0.29365 69.88348 11.37588 80 83.01758 80h5.98633l0.01367-80z" style="fill:url(#linearGradient971);filter:url(#filter975);opacity:.4"/>
 </g>
 <path d="m156.55041 16.431982c0.29365 69.88348 11.37588 80 83.01758 80h5.98633z" style="fill:#faf8f6"/>
 <path d="m245.55432 96.431982c-0.29365-69.88348-11.37588-80-83.01758-80h-5.98633z" style="fill:#5d5d5d"/>
</svg>

<svg xmlns="http://www.w3.org/2000/svg" xmlns:xlink="http://www.w3.org/1999/xlink" width="256" height="256" version="1.1" viewBox="0 0 256 256">
 <defs>
  <clipPath id="clipPath989" clipPathUnits="userSpaceOnUse">
   <path style="fill:url(#linearGradient993)" d="M 115.03124,43.99999 C 42.382604,44 32.000014,54.35661 32.000004,126.9375 v 58.12499 c 0,72.5806 10.38261,82.9375 83.031236,82.9375 h 73.93752 C 261.6174,267.99999 272,257.64307 272,185.06249 V 126.9375 C 272,54.35661 261.6174,44 188.96875,44 Z"/>
  </clipPath>
  <filter id="filter931" width="1.023" height="1.025" x="-.01" y="-.01" style="color-interpolation-filters:sRGB">
   <feGaussianBlur stdDeviation=".423"/>
  </filter>
  <linearGradient id="linearGradient971" x1="184" x2="232" y1="76" y2="124" gradientTransform="translate(0,4)" gradientUnits="userSpaceOnUse" xlink:href="#linearGradient969"/>
  <linearGradient id="linearGradient969">
   <stop offset="0" style="stop-color:#000000;stop-opacity:0"/>
   <stop style="stop-color:#000000" offset=".49"/>
   <stop offset="1" style="stop-color:#000000;stop-opacity:0"/>
  </linearGradient>
  <linearGradient id="linearGradient1108" x1="296" x2="296" y1="-212" y2="236" gradientUnits="userSpaceOnUse" xlink:href="#linearGradient1013"/>
  <linearGradient id="linearGradient1013">
   <stop style="stop-color:#ffffff" offset="0"/>
   <stop offset=".125" style="stop-color:#ffffff;stop-opacity:0.09803922"/>
   <stop offset=".925" style="stop-color:#000000;stop-opacity:0.09803922"/>
   <stop style="stop-color:#000000;stop-opacity:0.49803922" offset="1"/>
  </linearGradient>
  <clipPath id="clipPath1082-3-3" clipPathUnits="userSpaceOnUse">
   <path style="fill:#8c59d9" d="M 361.9375,-212 C 507.2348,-212 528,-191.28677 528,-46.125 V 70.125 C 528,215.28618 507.2348,236 361.9375,236 H 214.0625 C 68.7652,236 48,215.28618 48,70.125 V -46.125 C 48,-191.28677 68.7652,-212 214.0625,-212 Z"/>
  </clipPath>
  <linearGradient id="linearGradient938" x1="32" x2="272" y1="156" y2="156" gradientTransform="matrix(-0.34202014,0.93969262,0.93969262,0.34202014,30.963035,-67.75648)" gradientUnits="userSpaceOnUse" xlink:href="#linearGradient4239"/>
  <linearGradient id="linearGradient4239">
   <stop style="stop-color:#9b33ae" offset="0"/>
   <stop style="stop-color:#e97cc8" offset="1"/>
  </linearGradient>
  <filter id="filter1013" width="1.046" height="1.05" x="-.02" y="-.03" style="color-interpolation-filters:sRGB">
   <feGaussianBlur stdDeviation="2.32"/>
  </filter>
 </defs>
 <path style="opacity:0.2;filter:url(#filter1013)" d="m 162.53675,18.431977 c 72.64865,0 83.03125,10.356616 83.03125,82.937503 v 58.12501 c 0,72.58059 -10.3826,82.9375 -83.03125,82.9375 H 88.599254 c -72.648654,0 -83.0312541,-10.35691 -83.0312541,-82.9375 v -58.12501 c 0,-72.580887 10.3826001,-82.937503 83.0312541,-82.937503 z"/>
 <path d="m 88.599244,16.431982 c -72.648636,10e-6 -83.0312401,10.35661 -83.0312501,82.9375 v 58.125008 c 0,72.5806 10.3826241,82.9375 83.0312501,82.9375 h 73.937496 c 72.64864,0 83.03125,-10.35692 83.03125,-82.9375 V 99.369482 c 0,-1.00599 -0.01,-1.95528 -0.0137,-2.9375 l -89.00388,-80 z" style="fill:url(#linearGradient938)"/>
 <path d="M 230.90588,24.603857 36.230103,232.26011 c 12.45966,6.53045 31.491462,8.17188 60.369141,8.17188 h 73.937496 c 72.64864,0 83.03125,-10.35692 83.03125,-82.9375 V 99.369482 c 0,-43.730136 -3.77655,-64.867242 -22.66211,-74.765625 z" style="opacity:0.05;fill:#ffffff"/>
 <path style="opacity:0.4;fill:none;stroke:url(#linearGradient1108);stroke-width:8;stroke-linecap:round;stroke-linejoin:round" d="M 361.9375,-212 C 507.2348,-212 528,-191.28677 528,-46.125 V 70.125 C 528,215.28618 507.2348,236 361.9375,236 H 214.0625 C 68.7652,236 48,215.28618 48,70.125 V -46.125 C 48,-191.28677 68.7652,-212 214.0625,-212 Z" clip-path="url(#clipPath1082-3-3)" transform="matrix(0.5,0,0,0.5,-18.432006,122.43199)"/>
 <g clip-path="url(#clipPath989)" transform="translate(-26.432006,-27.568018)" style="enable-background:new">
  <path d="m 182.98242,44 c 0.29365,69.88348 11.37588,80 83.01758,80 h 5.98633 L 272,44 Z" style="opacity:0.1;filter:url(#filter931)"/>
  <path style="opacity:0.4;fill:url(#linearGradient971);filter:url(#filter975)" d="m 182.98242,48 c 0.29365,69.88348 11.37588,80 83.01758,80 h 5.98633 L 272,48 Z"/>
 </g>
 <path d="m 156.55041,16.431982 c 0.29365,69.88348 11.37588,80 83.01758,80 h 5.98633 z" style="fill:#faf8f6"/>
 <path style="fill:#5d5d5d" d="m 245.55432,96.431982 c -0.29365,-69.88348 -11.37588,-80 -83.01758,-80 h -5.98633 z"/>
</svg>
